Obsidian-SemiLight/actions/16s/edit-guides.svg

<svg viewBox="0 0 16 16" xmlns="http://www.w3.org/2000/svg"><path d="m3 2v1 1 2 4 2 1.5.5h6 1l3-3v-1-7-1zm1 1h1v8h-1zm2 0h6v7h-3v1h-3zm3 1-2 2 2 2zm-5 8h1v1h-1zm2 0h3v1h-3z" fill="#4d4d4d"/></svg>

<svg xmlns="http://www.w3.org/2000/svg" viewBox="0 0 16 16">
  <defs id="defs3051">
    <style type="text/css" id="current-color-scheme">
      .ColorScheme-Text {
        color:#4d4d4d;
      }
      </style>
  </defs>
 <path style="fill:currentColor;fill-opacity:1;stroke:none" 
     d="M 3 2 L 3 3 L 3 4 L 3 6 L 3 10 L 3 12 L 3 13.5 L 3 14 L 9 14 L 10 14 L 13 11 L 13 10 L 13 3 L 13 2 L 3 2 z M 4 3 L 5 3 L 5 11 L 4 11 L 4 3 z M 6 3 L 12 3 L 12 10 L 9 10 L 9 11 L 6 11 L 6 3 z M 9 4 L 7 6 L 9 8 L 9 4 z M 4 12 L 5 12 L 5 13 L 4 13 L 4 12 z M 6 12 L 9 12 L 9 13 L 6 13 L 6 12 z "
     class="ColorScheme-Text"
     />
</svg>
